assets/img/components/breadcrumbs-header.svg

<svg xmlns="http://www.w3.org/2000/svg" width="582" height="145" fill="none" viewBox="0 0 582 145"><path fill="#286ad8" d="M290 145.001H184.424c-21.773 0-39.424-17.853-39.424-39.875V.001h145zM145 105.125V0C64.919 0 0 64.919 0 145h105.125C127.148 145 145 127.147 145 105.125"/><path fill="#286ad8" d="M397.879 0c21.773 0 39.424 17.853 39.424 39.876v105.125H288v-145z"/><path fill="#5287df" d="M196 108.267a3.5 3.5 0 0 1 3.5-3.5h69.268a3.5 3.5 0 1 1 0 7H199.5a3.5 3.5 0 0 1-3.5-3.5M315.893 108.267a3.5 3.5 0 0 1 3.5-3.5h69.268a3.5 3.5 0 1 1 0 7h-69.268a3.5 3.5 0 0 1-3.5-3.5M295.857 108.164l-5.71-5.711q-.403-.403-.403-1.024 0-.623.403-1.025.402-.403 1.025-.403t1.025.403l6.735 6.735q.44.439.439 1.025 0 .585-.439 1.025l-6.735 6.735q-.403.402-1.025.402-.623 0-1.025-.402-.403-.403-.403-1.025 0-.623.403-1.025z"/><path fill="#286ad8" d="M437 105.126V.001c80.081 0 145 64.919 145 145H476.875c-22.022 0-39.875-17.853-39.875-39.875"/></svg>

<svg width="582" height="145" viewBox="0 0 582 145" fill="none" xmlns="http://www.w3.org/2000/svg">
<path d="M290 145.001H184.424C162.651 145.001 145 127.148 145 105.126V0.000976562H290V145.001Z" fill="#286AD8"/>
<path d="M145 105.125L145 0C64.9188 0 0 64.9187 0 145L105.125 145C127.148 145 145 127.147 145 105.125Z" fill="#286AD8"/>
<path d="M397.879 0.000900269C419.652 0.000900269 437.303 17.8533 437.303 39.876V145.001L288 145.001V0.000976562L397.879 0.000900269Z" fill="#286AD8"/>
<path d="M196 108.267C196 106.334 197.567 104.767 199.5 104.767H268.768C270.701 104.767 272.268 106.334 272.268 108.267C272.268 110.2 270.701 111.767 268.768 111.767H199.5C197.567 111.767 196 110.2 196 108.267Z" fill="#5287DF"/>
<path d="M315.893 108.267C315.893 106.334 317.46 104.767 319.393 104.767H388.661C390.594 104.767 392.161 106.334 392.161 108.267C392.161 110.2 390.594 111.767 388.661 111.767H319.393C317.46 111.767 315.893 110.2 315.893 108.267Z" fill="#5287DF"/>
<path d="M295.857 108.164L290.147 102.453C289.878 102.185 289.744 101.843 289.744 101.429C289.744 101.014 289.878 100.672 290.147 100.404C290.415 100.135 290.757 100.001 291.172 100.001C291.587 100.001 291.928 100.135 292.197 100.404L298.932 107.139C299.225 107.432 299.371 107.773 299.371 108.164C299.371 108.554 299.225 108.896 298.932 109.189L292.197 115.924C291.928 116.192 291.587 116.326 291.172 116.326C290.757 116.326 290.415 116.192 290.147 115.924C289.878 115.655 289.744 115.314 289.744 114.899C289.744 114.484 289.878 114.142 290.147 113.874L295.857 108.164Z" fill="#5287DF"/>
<path d="M437 105.126V0.000976563C517.081 0.000976563 582 64.9197 582 145.001H476.875C454.853 145.001 437 127.148 437 105.126Z" fill="#286AD8"/>
</svg>
